svg_80x80/android.svg

<svg viewBox="0 0 80 80" xmlns="http://www.w3.org/2000/svg">
<rect width="100%" height="100%" fill="white"/>
<path d="M74.1287 53.4849C74.1063 53.3443 74.0849 53.2054 74.0614 53.0664C73.9196 52.2042 73.7431 51.3522 73.538 50.5117C73.1779 49.0436 72.7249 47.6106 72.1842 46.2228C71.7272 45.0476 71.2069 43.9042 70.6295 42.796C69.8868 41.373 69.0492 40.007 68.1239 38.7079C66.9894 37.1158 65.7223 35.6243 64.3389 34.2499C63.7584 33.6723 63.1575 33.1148 62.5373 32.5808C61.1937 31.4207 59.7582 30.3644 58.2463 29.4202C58.2596 29.3983 58.2708 29.375 58.2841 29.3532C58.9768 28.1563 59.6715 26.9609 60.3642 25.764C61.0416 24.5955 61.719 23.4269 62.3965 22.2585C62.8841 21.4198 63.3707 20.5794 63.8553 19.7407C63.9706 19.5414 64.0614 19.3355 64.1298 19.1247C64.3195 18.537 64.3277 17.9193 64.1757 17.345C64.1369 17.2028 64.09 17.0639 64.0329 16.9283C63.9757 16.7926 63.9094 16.6604 63.8339 16.5331C63.5748 16.0979 63.2045 15.7195 62.7392 15.4433C62.3281 15.1989 61.868 15.0533 61.3967 15.0114C61.1988 14.9947 60.9998 14.9963 60.8019 15.0164C60.6387 15.0332 60.4764 15.0634 60.3153 15.1052C59.7419 15.2575 59.2094 15.5722 58.7952 16.0275C58.6462 16.1916 58.5115 16.3725 58.3963 16.5716C57.9096 17.4103 57.423 18.2508 56.9374 19.0895L54.9051 22.595C54.2124 23.792 53.5177 24.9872 52.825 26.1842C52.7495 26.3147 52.673 26.4453 52.5975 26.5776C52.4924 26.5357 52.3883 26.4938 52.2832 26.4537C48.4636 24.9972 44.3196 24.2004 39.9878 24.2004C39.8695 24.2004 39.7522 24.2004 39.6328 24.2021C35.7816 24.2405 32.0813 24.9102 28.6289 26.1122C28.23 26.2511 27.8352 26.3985 27.4435 26.5525C27.3731 26.4303 27.3006 26.3081 27.2313 26.1858C26.5386 24.9889 25.8438 23.7936 25.1511 22.5966C24.4737 21.4282 23.7963 20.2596 23.1189 19.0911C22.6312 18.2524 22.1446 17.412 21.66 16.5733C21.5437 16.3741 21.41 16.1933 21.2611 16.0293C20.8469 15.5739 20.3143 15.2591 19.741 15.1068C19.5798 15.065 19.4176 15.0349 19.2533 15.0182C19.0564 14.9981 18.8575 14.9963 18.6596 15.0131C18.1883 15.0533 17.7281 15.1989 17.316 15.445C16.8508 15.7212 16.4835 16.0996 16.2223 16.5348C16.1468 16.662 16.0795 16.7943 16.0234 16.9299C15.9663 17.0655 15.9173 17.2044 15.8806 17.3468C15.7286 17.9209 15.7367 18.5387 15.9254 19.1263C15.9948 19.3373 16.0846 19.5431 16.1999 19.7424C16.6875 20.5811 17.1742 21.4214 17.6588 22.2601C18.3372 23.4287 19.0146 24.5972 19.692 25.7656C20.3847 26.9626 21.0785 28.1579 21.7712 29.3549C21.7763 29.3649 21.7834 29.375 21.7885 29.385C20.3909 30.2539 19.0615 31.2164 17.8067 32.2694C17.0548 32.9006 16.3305 33.5618 15.6367 34.2532C14.2544 35.6276 12.9883 37.1192 11.8518 38.7112C10.9255 40.0103 10.0869 41.3746 9.3462 42.7994C8.76877 43.9076 8.24847 45.0509 7.79142 46.2262C7.25071 47.614 6.79774 49.0469 6.43761 50.5151C6.23255 51.3555 6.0581 52.206 5.91425 53.0698C5.89079 53.2087 5.86936 53.3493 5.84794 53.4883C5.7704 53.9889 5.70512 54.4928 5.65002 55H74.3205C74.2654 54.4928 74.2002 53.9889 74.1236 53.4883L74.1287 53.4849Z" fill="#34A853"/>
<path d="M58.2932 40.7759C59.4216 42.4716 59.2216 44.5878 57.8474 45.5026C56.4743 46.4174 54.4461 45.7842 53.3188 44.0885C52.1904 42.3928 52.3904 40.2766 53.7646 39.3618C55.1378 38.4471 57.1659 39.0801 58.2932 40.7759Z" fill="#202124"/>
<path d="M26.2662 39.3677C27.6404 40.2824 27.8403 42.3986 26.712 44.0944C25.5847 45.79 23.5565 46.4232 22.1823 45.5084C20.8091 44.5937 20.6092 42.4775 21.7365 40.7817C22.8648 39.086 24.8919 38.4529 26.2662 39.3677Z" fill="#202124"/>
</svg>

<svg xmlns="http://www.w3.org/2000/svg" viewBox="0 0 80 80">
  <rect width="100%" height="100%" fill="#fff"/>
  <path fill="#34A853" d="m74.13 53.48-.07-.41a34.17 34.17 0 0 0-5.94-14.36 34.54 34.54 0 0 0-9.87-9.29l.03-.07c.7-1.2 1.4-2.39 2.08-3.59l2.04-3.5 1.46-2.52a3.2 3.2 0 0 0 .17-2.81 3.13 3.13 0 0 0-3.72-1.82 3.15 3.15 0 0 0-1.91 1.46l-1.46 2.52-2.03 3.5c-.7 1.2-1.4 2.4-2.08 3.6l-.23.39-.32-.13a34.43 34.43 0 0 0-12.65-2.25 34.45 34.45 0 0 0-12.19 2.35l-.2-.36-2.09-3.6-2.03-3.5-1.46-2.52a3.23 3.23 0 0 0-1.92-1.46 3.25 3.25 0 0 0-1.08-.1 3.14 3.14 0 0 0-2.73 4.12c.06.2.15.41.27.61l1.46 2.52 2.03 3.5 2.08 3.6.02.03A34.65 34.65 0 0 0 5.9 53.06l-.06.42c-.08.5-.14 1-.2 1.51h68.67c-.05-.5-.12-1.01-.2-1.51Z"/>
  <path fill="#202124" d="M58.3 40.78c1.12 1.7.92 3.8-.45 4.72-1.38.92-3.4.28-4.53-1.41-1.13-1.7-.93-3.81.44-4.73 1.38-.91 3.4-.28 4.53 1.42ZM26.27 39.37c1.37.91 1.57 3.03.44 4.72-1.13 1.7-3.15 2.33-4.53 1.42-1.37-.92-1.57-3.03-.44-4.73 1.12-1.7 3.15-2.33 4.53-1.41Z"/>
</svg>
